X:1
T:Title
%%score { ( 1 3 ) | ( 2 4 ) }
L:1/8
Q:1/4=84
M:4/4
K:C
V:1 treble nm="Grand Piano"
V:3 treble 
V:2 bass 
V:4 bass 
V:1
 [FA]2 [^Gd][Gd] [=Gc]3 [Fc] | E-[EG]E-[EG] [C^FA]4 | [FAc]2 [Ad][^G_e] [=G=e]3 [CGc] | %3
w: Victor~H.~Benke * * * *|||
 ^F-[Fc]dG [Cc]2- [CGc]2 | A2 [^Gd][Gd] [=Gc]3 [EG] | FED-[DG] [^CA]4 | %6
w: |||
 [DA]2 [F_B][F=B] [Fc]3[K:bass] [F,C] | %7
w: |
[M:5/4] .D2[K:treble] z2 z2 z4[Q:1/4=83][Q:1/4=82][Q:1/4=80][Q:1/4=79][Q:1/4=78][Q:1/4=77][Q:1/4=75][Q:1/4=74][Q:1/4=73][Q:1/4=72][Q:1/4=70][Q:1/4=69][Q:1/4=68][Q:1/4=67][Q:1/4=65][Q:1/4=64] |] %8
w: |
V:2
 [F,C]2 [F,B,][F,B,] [E,_B,]3 [D,B,] | G,_B, z B, F,4 | F,2 [F,C][^F,C] [G,C]3 E, | %3
 z A, [G,B,F]2 C,2 E,2 | [F,CF]2 [F,B,][F,B,] [E,_B,]3 [C,B,] | [D,A,D]2 z E, [A,,E,]4 | %6
 [D,F,]2 [D,G,][^C,^G,] [=C,A,]3 A,, |[M:5/4] G,,2 [C,E,_B,]2 [F,,F,]6 |] %8
V:3
 x8 | .c2 .[A,^F]2 z4 | x8 | .[CA]2 z2 E2 z2 | x8 | z2 .[G,F]2 z4 | x7[K:bass] x | %7
[M:5/4] [F,B,]-[F,B,A][K:treble]GC [A,F]6 |] %8
V:4
 x8 | C,2 C,2 z4 | x8 | D,2 z2 z4 | x8 | z2 _B,,2 z4 | x8 |[M:5/4] x10 |] %8

